X:321
T:Haidh-O-Haidrium
D:Wick S.C.D., The Sound of the North (1970)
O:Scotland
Z:Nigel Gatherer
L:1/8
M:4/4
K:A
z f|g2 f2 e2 A2|e>de>f g2 e2|d2 d2 d2 G2|d>Bd>e g2 a2|
g2 f2 e2 A2|e>de>f g2 a>g|e<de<g e2 d>B|A4 A2:|
A>B|e>AA<A e>AA<A|e>de>f gde<g|B>AA<A B>GG<G|d>GG<G B>AB<d|
e>AA<A e>AA<A|e>de>f g2 a>g|e<de<g e2 d>B|A4 A2:|
B<d|e>a (3aaa g>e (3eee|e>dB<d e2 d<B|e>a (3aaa g>e (3eee|d>Bd<e g2e<d|
e>a (3aaa g>e (3eee|e>dB<d e2 a>g|e<de<g e2 d>B|A4 A2:|
<end>
<start>
